Newaita/actions/16/kt-add-filters.svg

<svg height="16" viewBox="0 0 16 16" width="16" xmlns="http://www.w3.org/2000/svg"><g fill="#424242"><path d="m14.554688 8.230469v-.332031c0-.09375-.152344-.164063-.34375-.164063h-12.546876c-.1875 0-.339843.070313-.339843.164063v.332031c0 .089843.152343.164062.339843.164062h12.546876c.191406 0 .34375-.074219.34375-.164062zm0 0"/><path d="m2.316406 5.746094h.660156c.183594 0 .332032.148437.332032.332031v.332031c0 .183594-.148438.328125-.332032.328125h-.660156c-.183594 0-.332031-.144531-.332031-.328125v-.332031c0-.183594.148437-.332031.332031-.332031zm0 0"/><path d="m7.609375 2.109375h.660156c.183594 0 .332031.148437.332031.332031v3.96875c0 .183594-.148437.328125-.332031.328125h-.660156c-.183594 0-.332031-.144531-.332031-.328125v-3.96875c0-.183594.148437-.332031.332031-.332031zm0 0"/><path d="m12.898438 4.753906h.664062c.179688 0 .328125.148438.328125.332032v1.324218c0 .183594-.148437.328125-.328125.328125h-.664062c-.179688 0-.328126-.144531-.328126-.328125v-1.324218c0-.183594.148438-.332032.328126-.332032zm0 0"/><path d="m5.953125 11.207031h3.96875c.183594 0 .332031.148438.332031.328125v.664063c0 .179687-.148437.328125-.332031.328125h-3.96875c-.183594 0-.332031-.148438-.332031-.328125v-.664063c0-.179687.148437-.328125.332031-.328125zm0 0"/><path d="m8.601562 9.882812v3.96875c0 .183594-.148437.332032-.332031.332032h-.660156c-.183594 0-.332031-.148438-.332031-.332032v-3.96875c0-.183593.148437-.332031.332031-.332031h.660156c.183594 0 .332031.148438.332031.332031zm0 0"/><path d="m4.960938 3.101562h.660156c.183594 0 .332031.148438.332031.332032v2.976562c0 .183594-.148437.328125-.332031.328125h-.660156c-.183594 0-.332032-.144531-.332032-.328125v-2.976562c0-.183594.148438-.332032.332032-.332032zm0 0"/><path d="m10.253906 3.761719h.660156c.183594 0 .332032.148437.332032.332031v2.316406c0 .183594-.148438.328125-.332032.328125h-.660156c-.183594 0-.332031-.144531-.332031-.328125v-2.316406c0-.183594.148437-.332031.332031-.332031zm0 0"/></g></svg>

<svg xmlns="http://www.w3.org/2000/svg" xmlns:xlink="http://www.w3.org/1999/xlink" width="16px" height="16px" viewBox="0 0 16 16" version="1.1">
<g id="surface1">
     <defs>
  <style id="current-color-scheme" type="text/css">
   .ColorScheme-Text { color:#424242; } .ColorScheme-Highlight { color:#eeeeee; }
  </style>
 </defs>
<path style="fill:currentColor" class="ColorScheme-Text" d="M 14.554688 8.230469 L 14.554688 7.898438 C 14.554688 7.804688 14.402344 7.734375 14.210938 7.734375 L 1.664062 7.734375 C 1.476562 7.734375 1.324219 7.804688 1.324219 7.898438 L 1.324219 8.230469 C 1.324219 8.320312 1.476562 8.394531 1.664062 8.394531 L 14.210938 8.394531 C 14.402344 8.394531 14.554688 8.320312 14.554688 8.230469 Z M 14.554688 8.230469 "/>
     <defs>
  <style id="current-color-scheme" type="text/css">
   .ColorScheme-Text { color:#424242; } .ColorScheme-Highlight { color:#eeeeee; }
  </style>
 </defs>
<path style="fill:currentColor" class="ColorScheme-Text" d="M 2.316406 5.746094 L 2.976562 5.746094 C 3.160156 5.746094 3.308594 5.894531 3.308594 6.078125 L 3.308594 6.410156 C 3.308594 6.59375 3.160156 6.738281 2.976562 6.738281 L 2.316406 6.738281 C 2.132812 6.738281 1.984375 6.59375 1.984375 6.410156 L 1.984375 6.078125 C 1.984375 5.894531 2.132812 5.746094 2.316406 5.746094 Z M 2.316406 5.746094 "/>
     <defs>
  <style id="current-color-scheme" type="text/css">
   .ColorScheme-Text { color:#424242; } .ColorScheme-Highlight { color:#eeeeee; }
  </style>
 </defs>
<path style="fill:currentColor" class="ColorScheme-Text" d="M 7.609375 2.109375 L 8.269531 2.109375 C 8.453125 2.109375 8.601562 2.257812 8.601562 2.441406 L 8.601562 6.410156 C 8.601562 6.59375 8.453125 6.738281 8.269531 6.738281 L 7.609375 6.738281 C 7.425781 6.738281 7.277344 6.59375 7.277344 6.410156 L 7.277344 2.441406 C 7.277344 2.257812 7.425781 2.109375 7.609375 2.109375 Z M 7.609375 2.109375 "/>
     <defs>
  <style id="current-color-scheme" type="text/css">
   .ColorScheme-Text { color:#424242; } .ColorScheme-Highlight { color:#eeeeee; }
  </style>
 </defs>
<path style="fill:currentColor" class="ColorScheme-Text" d="M 12.898438 4.753906 L 13.5625 4.753906 C 13.742188 4.753906 13.890625 4.902344 13.890625 5.085938 L 13.890625 6.410156 C 13.890625 6.59375 13.742188 6.738281 13.5625 6.738281 L 12.898438 6.738281 C 12.71875 6.738281 12.570312 6.59375 12.570312 6.410156 L 12.570312 5.085938 C 12.570312 4.902344 12.71875 4.753906 12.898438 4.753906 Z M 12.898438 4.753906 "/>
     <defs>
  <style id="current-color-scheme" type="text/css">
   .ColorScheme-Text { color:#424242; } .ColorScheme-Highlight { color:#eeeeee; }
  </style>
 </defs>
<path style="fill:currentColor" class="ColorScheme-Text" d="M 5.953125 11.207031 L 9.921875 11.207031 C 10.105469 11.207031 10.253906 11.355469 10.253906 11.535156 L 10.253906 12.199219 C 10.253906 12.378906 10.105469 12.527344 9.921875 12.527344 L 5.953125 12.527344 C 5.769531 12.527344 5.621094 12.378906 5.621094 12.199219 L 5.621094 11.535156 C 5.621094 11.355469 5.769531 11.207031 5.953125 11.207031 Z M 5.953125 11.207031 "/>
     <defs>
  <style id="current-color-scheme" type="text/css">
   .ColorScheme-Text { color:#424242; } .ColorScheme-Highlight { color:#eeeeee; }
  </style>
 </defs>
<path style="fill:currentColor" class="ColorScheme-Text" d="M 8.601562 9.882812 L 8.601562 13.851562 C 8.601562 14.035156 8.453125 14.183594 8.269531 14.183594 L 7.609375 14.183594 C 7.425781 14.183594 7.277344 14.035156 7.277344 13.851562 L 7.277344 9.882812 C 7.277344 9.699219 7.425781 9.550781 7.609375 9.550781 L 8.269531 9.550781 C 8.453125 9.550781 8.601562 9.699219 8.601562 9.882812 Z M 8.601562 9.882812 "/>
     <defs>
  <style id="current-color-scheme" type="text/css">
   .ColorScheme-Text { color:#424242; } .ColorScheme-Highlight { color:#eeeeee; }
  </style>
 </defs>
<path style="fill:currentColor" class="ColorScheme-Text" d="M 4.960938 3.101562 L 5.621094 3.101562 C 5.804688 3.101562 5.953125 3.25 5.953125 3.433594 L 5.953125 6.410156 C 5.953125 6.59375 5.804688 6.738281 5.621094 6.738281 L 4.960938 6.738281 C 4.777344 6.738281 4.628906 6.59375 4.628906 6.410156 L 4.628906 3.433594 C 4.628906 3.25 4.777344 3.101562 4.960938 3.101562 Z M 4.960938 3.101562 "/>
     <defs>
  <style id="current-color-scheme" type="text/css">
   .ColorScheme-Text { color:#424242; } .ColorScheme-Highlight { color:#eeeeee; }
  </style>
 </defs>
<path style="fill:currentColor" class="ColorScheme-Text" d="M 10.253906 3.761719 L 10.914062 3.761719 C 11.097656 3.761719 11.246094 3.910156 11.246094 4.09375 L 11.246094 6.410156 C 11.246094 6.59375 11.097656 6.738281 10.914062 6.738281 L 10.253906 6.738281 C 10.070312 6.738281 9.921875 6.59375 9.921875 6.410156 L 9.921875 4.09375 C 9.921875 3.910156 10.070312 3.761719 10.253906 3.761719 Z M 10.253906 3.761719 "/>
</g>
</svg>
